X: 1600
T: Jim Wilkinson's Lancers
B: australian traditional tunes wiki
M:6/8
L:1/8
R: Jig
Q: 3/8=100
K:D
V:1 
A|"D"ABAF2G|ABAF2G|ABA FED|"A7"E3-E2F|"Em"GFGE2F|GFGE2F|"A7"ABA GFE|"D"D2DF2G|
"D"A3-A2F|"A7"A2dc2d|"G"BABe2d|"A7"c3-c2A|"D"A2Bc2d|"A7"e2f edc|"D"d2c "G"B2c|"D"d3"A7"c2B|
"D"AGF- FED|"G"d3-dcB|"D"ABF- FED|"A7"E3-E3|"D"FGF- FED|"G"d3-dcB|"A7"ABA GFE|"D"D3"A7"A3|
"D"A2Fd2F|"Em"G2Ge2d|"A7"cdc B2c|"D"d2ef3|A2Fd2F|"Em"G2Ge2d|"A7"cdc B2c|"D"d3-d2||
% abcbook-tune_id 6342d53ab4a6c31a289849f6


% abcbook-boost 0
% abcbook-tablature 
% abcbook-transpose 
% abcbook-lastupdated 1665324373283
% abcbook-soundfonts 
% abcbook-repeats 1
% NFF Book 2016

